X:600
T:Emerald Isle., The
R:air
T:inis ealga.
Z:Tempo: slow
M:3/4
L:1/8
K:F
Hc2|c2 F2 G2|A4 cc|c2 f2d2|d2c2 z c|
c2 B2 A2|B2 A2 cd|F2 AG3 F|F2E2 c2|
c2 cBA GF|f4 ff|ef gf dB|d2c2 z c|
cf A3c|cd F3 F|A2 A3G|F4||
A2|Pde d3 A|Pfg f3 A|PB2 PA2 PG2|FAG F3F|
G2 G2 G2|A4 AA|B2 A2 G2|F2GFE2 AB|
cd c3 A/F/|f4 z f|gf ed cB|d2 c3 c/c/|
c2 BA GF|B2A2 G2|F2 G2 A2|HB4 cd|
cf A3c|cd F3D|C2 A2 G2|F4||
